src/lib/packages/icons/src/assets/line/user-circle.svg

<svg width="24" height="24" viewBox="0 0 24 24" fill="none" xmlns="http://www.w3.org/2000/svg">
<path d="M22.75 12C22.75 6.072 17.928 1.25 12 1.25C6.072 1.25 1.25 6.072 1.25 12C1.25 15.47 2.90899 18.552 5.46899 20.519C5.47299 20.523 5.47903 20.5251 5.48303 20.5291C7.29403 21.9161 9.54898 22.75 12.001 22.75C14.453 22.75 16.708 21.9161 18.519 20.5291C18.523 20.5251 18.529 20.523 18.533 20.519C21.091 18.552 22.75 15.47 22.75 12ZM2.75 12C2.75 6.899 6.899 2.75 12 2.75C17.101 2.75 21.25 6.899 21.25 12C21.25 14.523 20.232 16.8121 18.588 18.4821C18.139 16.5811 16.702 14.8199 13.71 14.8199H10.29C7.29804 14.8199 5.85999 16.5811 5.41199 18.4821C3.76799 16.8121 2.75 14.523 2.75 12ZM6.75903 19.614C6.81703 18.588 7.28604 16.3199 10.29 16.3199H13.71C16.714 16.3199 17.183 18.588 17.241 19.614C15.75 20.644 13.945 21.25 12 21.25C10.055 21.25 8.25003 20.643 6.75903 19.614ZM12.0081 13.75C14.0751 13.75 15.7581 12.068 15.7581 10C15.7581 7.932 14.0751 6.25 12.0081 6.25C9.94106 6.25 8.25806 7.932 8.25806 10C8.25806 12.068 9.94006 13.75 12.0081 13.75ZM12.0081 7.75C13.2481 7.75 14.2581 8.759 14.2581 10C14.2581 11.241 13.2481 12.25 12.0081 12.25C10.7681 12.25 9.75806 11.241 9.75806 10C9.75806 8.759 10.7681 7.75 12.0081 7.75Z" fill="currentColor"/>
</svg>

<svg xmlns="http://www.w3.org/2000/svg" width="24" height="24" fill="none"><path fill="currentColor" d="M22.75 12c0-5.928-4.822-10.75-10.75-10.75S1.25 6.072 1.25 12c0 3.47 1.659 6.552 4.219 8.519l.014.01a10.683 10.683 0 0 0 6.518 2.221c2.452 0 4.707-.834 6.518-2.22.004-.005.01-.007.014-.011C21.091 18.552 22.75 15.47 22.75 12Zm-20 0c0-5.101 4.149-9.25 9.25-9.25s9.25 4.149 9.25 9.25a9.216 9.216 0 0 1-2.662 6.482c-.449-1.9-1.886-3.662-4.878-3.662h-3.42c-2.992 0-4.43 1.761-4.878 3.662A9.216 9.216 0 0 1 2.75 12Zm4.009 7.614c.058-1.026.527-3.294 3.531-3.294h3.42c3.004 0 3.473 2.268 3.531 3.294A9.19 9.19 0 0 1 12 21.25a9.198 9.198 0 0 1-5.241-1.636Zm5.25-5.864a3.755 3.755 0 0 0 3.75-3.75 3.755 3.755 0 0 0-3.75-3.75A3.755 3.755 0 0 0 8.258 10a3.754 3.754 0 0 0 3.75 3.75Zm0-6c1.24 0 2.25 1.009 2.25 2.25s-1.01 2.25-2.25 2.25A2.253 2.253 0 0 1 9.758 10c0-1.241 1.01-2.25 2.25-2.25Z"/></svg>
